!!!!SEGMENT: pl-wtm--r-90-n--002_noskowski-zygmunt--piesni-op-63-kochal-jasio-raz-basieczke.krn
!!!cenid: 18xx:2121
!!!COM: Noskowski, Zygmunt
!!!COM-rismID: pe106604
!!!CDT: 1846/05/02-1909/07/23
!!!CNT: Polish
!!!GTL: Pieśni op. 63
!!!OTL: Kochał Jasio raz Basieczkę
!!!PDT: 1899
!!!AGN: Secular; Song
!!!SMS-siglum: PL-Wtm
!!!SMS-shelfmark: R 90/N
!!!SMS-shelfwork: 002 G
!!!SMS-variant:
!!!SMS-altvar:
!!!NIFC-rismSourceID: 1001099974
!!!NIFC-rismChildID: 1001099974
!!!NIFC-islandoraID:
!!!URL-pdf-islandora:
!!!URL-scan:
!!!ONB-nifc: UWAGA: w zbiorze 10 krótkich pieśni
!!!OMD: Andantino
!!!AIN: 1 empty
!!!key:
**kern	**kern	**text
*part1	*part1	*part1
*staff2	*staff1	*staff1
*Iempty	*Iempty	*
*I"	*I"	*
*clefF4	*clefG2	*
*k[b-e-a-]	*k[b-e-a-]	*
*E-:	*E-:	*
*M6/8	*M6/8	*
!LO:MO:mod=*null:null	!LO:MO:mod=*null:null	!
*all\right	*all\right	*
=1	=1	=1
8E-\L	4r	.
8B-\	.	.
8e-\J	8r	.
8E-\L	8r	.
8B-\	8g/	Ko-
8e-\J	8b-\	-chał
=2	=2	=2
8E-\L	4g/	Ja-
8B-\	.	.
8e-\J	8a-/	-sio
8E-\L	(8b-/L	raz
8B-\	8a-/J)	.
8d\J	8f/	Ba-
=3	=3	=3
8E-\L	4g/	-siecz-
8B-\	.	.
!	!	!LO:MO:mod=-kę,
8G\J	8e-/	-kę
8E-\L	8r	.
8B-\	8g/	Ba-
8e-\J	8a-/	-sia
=4	=4	=4
8E-\L	4b-/	Ja-
8B-\	.	.
8d-X\J	8g/	-sia
8E-\L	8f/L	teź
8B-\	8g/J	.
8d-\J	8e-/	tro-
=5	=5	=5
8A-\L	4.cc\	-szecz-
8c\	.	.
8A-\J	.	.
!	!	!LO:MO:mod=-kę.
8C\L	4a-\	-kę
8E-\	.	.
8A-\J	8r	.
!!LO:LB:g=original
=6	=6	=6
8D\L	4g/	By-
8A-\	.	.
8B-\J	8f/	-li
8BB-\L	4b-\	zaw-
8F\	.	.
8B-\J	8d/	-sze
=7	=7	=7
8E-\L	4e-/	w każ-
8G\	.	.
8B-\J	8f/	-dej
8BB-\L	(8g/L	do-
8G\	8cc/J)	.
8B-\J	8b-/	-bie
=8	=8	=8
!	!	!LO:MO:mod=i
8D\L	4g/	I
8A-\	.	.
8B-\J	8f/	ze
8BB-\L	4b-\	so-
8F\	.	.
!	!	!LO:MO:mod=-bą,
8B-\J	8d/	-bą
=9	=9	=9
8E-\L	4e-/	i
8G\	.	.
8B-\J	8f/	przy
4E-\	(8g/L	so-
.	8a-/J)	.
!	!	!LO:MO:mod=-bie.
8r	8b-\	-bie
=10	=10	=10
!	!	!LO:MO:mod=Oj,
8A-\L	(4.cc\	Oj!
8f\	.	.
8e-\J	.	.
8c\L	4.ee-\)	.
8B-\	.	.
8A-\J	.	.
!!LO:LB:g=original
=11	=11	=11
!	!	!LO:MO:mod=tak!
8G\L	2.b-\	tak
8B-\	.	.
8c\J	.	.
8B-\L	.	.
8G\	.	.
8E-\J	.	.
=12	=12	=12
!	!	!LO:MO:mod=Oj,
8A-\L	(4.cc\	Oj
8G\	.	.
8A-\J	.	.
8BB-\L	4.d/)	.
8F\	.	.
8A-\J	.	.
=13	=13	=13
8G\L	2.e-/	tak!
8B-\	.	.
8G\J	.	.
4E-\	.	.
8r	.	.
==	==	==
*-	*-	*-
!!!system-decoration: {(s1,s2)}
!!!ENC: Marta Lawrence
!!!END: 2021-06-02
!!!ENC: Mateusz Solarz
!!!END: 2021-05-11
!!!ENC-modern: Krzysztof Stępień
!!!END-modern: 2022-09-28
!!!filter-modern-modern: shed -e "s/:t=P:/:T=P:/L"
!!!filter-modern-modern: shed -e "s/^(\d+[\/\\]right)/$1yy/I; s/^(\d+[\/\\]left)/$1yy/I"
!!!filter-modern-modern: humtr -p
!!!filter-modern-modern: shed -e "s/yy//"
!!!filter-modern-modern: shed -k -e "s/\(y(?!y)/(/"
!!!filter-modern-modern: shed -k -e "s/([\(\)\[\]])[><]/$1/g"
!!!filter-modern-modern: shed -k -e “s/([()[]_])[><]/$1/g”
!!!filter-modern-modern: tie -s
!!!filter-modern-modern: shed -e "s/^(X?)rep$/$1REP/I"
!!!filter-modern-modern: shed -k -e "s/^(X?)tuplet/$1TUPLET/I"
!!!filter-modern-modern: shed -e "s/LO:DY:(a|b|rj)/LO:dy:$1/L"
!!!filter-modern-modern: shed -e "s/LO:HP:(a|b)/LO:hp:$1/L"
!!!filter-modern-modern: shed -k -e "s/r[a-gA-G]+/r/D"
!!!filter-modern-modern: shed -k -e "s/([^a-gA-Gn#-])[<>]/$1/g"
!!!filter-modern-modern: sic -sq
!!!filter-modern-modern: autostem -r
!!!filter-modern-modern: modori -m
